images/Antenna-1.svg

<svg width="66" height="70" viewBox="0 0 66 70" fill="none" xmlns="http://www.w3.org/2000/svg">
<path d="M65.0859 48.3385L46.7522 29.7337L48.7869 19.6373C49.312 19.8438 49.8702 19.9517 50.4337 19.9558H50.4476C53.0365 19.9866 55.16 17.8974 55.1907 15.2893C55.2214 12.6812 53.1474 10.542 50.5585 10.5111C47.9696 10.4803 45.8461 12.5695 45.8154 15.1776C45.8089 15.7357 45.9005 16.2905 46.0863 16.8163L35.316 18.1405L17.7478 0.35C17.5323 0.128479 17.2381 0.00247917 16.9302 0C16.6262 0.00160417 16.3351 0.123521 16.1196 0.3395L12.8352 3.6295C12.3831 4.08508 12.3831 4.82358 12.8352 5.27917L14.6025 7.08517C7.75585 19.7681 9.97967 35.4741 20.0733 45.7228C20.1659 45.8121 20.2733 45.8843 20.3906 45.9363C20.3176 46.3311 20.2796 46.7317 20.2771 47.1333V60.6667H6.38004C3.18372 60.6705 0.593363 63.28 0.5896 66.5V68.8333C0.5896 69.4776 1.10813 70 1.74769 70H55.0198C55.6593 70 56.1778 69.4776 56.1778 68.8333V66.5C56.1741 63.28 53.5837 60.6705 50.3874 60.6667H36.4903V54.6688C38.6674 55.1288 40.8856 55.3633 43.11 55.3688C48.4476 55.363 53.7003 54.0225 58.3967 51.4675L60.1732 53.2677C60.3888 53.4892 60.6829 53.6152 60.9909 53.6177C61.2949 53.6161 61.586 53.4941 61.8015 53.2782L65.0859 49.9882C65.5379 49.5326 65.5379 48.7941 65.0859 48.3385ZM48.8147 13.6348C49.7216 12.726 51.1882 12.7301 52.0902 13.6437C52.9924 14.5574 52.9883 16.0348 52.0814 16.9435C51.6473 17.3785 51.0598 17.6226 50.4475 17.6225H50.4405C49.1614 17.6158 48.1297 16.5658 48.1364 15.2771C48.1395 14.6602 48.3851 14.0699 48.8192 13.6348H48.8147V13.6348ZM46.0886 21.301L44.7892 27.7445L42.2368 25.158L46.0886 21.301ZM44.773 19.3282L40.6039 23.5037L37.3786 20.237L44.773 19.3282ZM50.3874 63C52.3062 63 53.8617 64.567 53.8617 66.5V67.6667H2.90578V66.5C2.90578 64.567 4.46123 63 6.38004 63H50.3874ZM34.1742 58.3333V60.6667H22.5933V58.3333H34.1742ZM22.5933 56V47.1333C22.5933 44.303 25.1909 42 28.3837 42C31.5766 42 34.1742 44.303 34.1742 47.1333V56H22.5933ZM36.4903 52.29V47.1333C36.4903 43.0162 32.8539 39.6667 28.3837 39.6667C25.4934 39.622 22.7907 41.1041 21.2592 43.5738C12.4481 34.2249 10.464 20.2875 16.3114 8.82073L56.7036 49.7455C50.4664 52.9419 43.3165 53.8418 36.4903 52.29ZM61.0036 50.7943L59.3718 49.1412L16.9186 6.11567L15.2799 4.46133L16.9186 2.81633L34.1487 20.272C34.1568 20.272 34.1614 20.2872 34.1695 20.293L62.6469 49.1493L61.0036 50.7943Z" fill="#212121"/>
<path d="M28.3942 44.3333H28.3838C26.465 44.3304 24.9072 45.895 24.9043 47.8281C24.9014 49.7611 26.4545 51.3304 28.3734 51.3333H28.3838C30.3026 51.3362 31.8604 49.7716 31.8633 47.8386C31.8661 45.9055 30.313 44.3362 28.3942 44.3333ZM29.2049 48.6605C28.9869 48.8789 28.6914 49.0012 28.3838 49C27.7442 48.9966 27.2284 48.4716 27.2318 47.8273C27.2334 47.5189 27.3561 47.2237 27.5731 47.0062C27.7887 46.7902 28.0798 46.6683 28.3838 46.6667C29.0233 46.67 29.5391 47.195 29.5358 47.8393C29.5342 48.1477 29.4114 48.4429 29.1944 48.6605H29.2049Z" fill="#2196F3"/>
</svg>

<svg width="66" height="70" fill="none" xmlns="http://www.w3.org/2000/svg"><path d="M65.086 48.339L46.752 29.734l2.035-10.097a4.59 4.59 0 001.647.319h.014c2.588.03 4.712-2.059 4.743-4.667.03-2.608-2.044-4.747-4.633-4.778-2.588-.03-4.712 2.059-4.743 4.667a4.752 4.752 0 00.271 1.638l-10.77 1.325L17.748.35A1.154 1.154 0 0016.93 0a1.154 1.154 0 00-.81.34l-3.285 3.29a1.173 1.173 0 000 1.65l1.767 1.805c-6.846 12.683-4.622 28.39 5.471 38.638.093.09.2.161.318.213a6.817 6.817 0 00-.114 1.197v13.534H6.38C3.184 60.67.593 63.28.59 66.5v2.333c0 .645.518 1.167 1.158 1.167H55.02c.64 0 1.158-.522 1.158-1.167V66.5c-.004-3.22-2.594-5.83-5.79-5.833H36.49v-5.998c2.177.46 4.396.694 6.62.7a32.056 32.056 0 0015.287-3.901l1.776 1.8c.216.221.51.347.818.35.304-.002.595-.124.81-.34l3.285-3.29a1.173 1.173 0 000-1.65zM48.815 13.635a2.304 2.304 0 013.275.009 2.345 2.345 0 01-.009 3.3 2.308 2.308 0 01-1.634.678h-.007a2.325 2.325 0 01-2.304-2.345 2.342 2.342 0 01.683-1.642h-.004zM46.089 21.3l-1.3 6.444-2.552-2.587 3.852-3.857zm-1.316-1.973l-4.17 4.176-3.224-3.267 7.394-.909zM50.387 63c1.92 0 3.475 1.567 3.475 3.5v1.167H2.906V66.5c0-1.933 1.555-3.5 3.474-3.5h44.007zm-16.213-4.667v2.334h-11.58v-2.334h11.58zM22.594 56v-8.867c0-2.83 2.597-5.133 5.79-5.133s5.79 2.303 5.79 5.133V56h-11.58zm13.896-3.71v-5.157c0-4.117-3.636-7.466-8.106-7.466a8.236 8.236 0 00-7.125 3.907c-8.81-9.35-10.795-23.286-4.948-34.753l40.393 40.925A29.813 29.813 0 0136.49 52.29zm24.514-1.496l-1.632-1.653L16.919 6.116l-1.64-1.655 1.64-1.645 17.23 17.456c.008 0 .012.015.02.021l28.478 28.856-1.643 1.645z" fill="#212121"/><path d="M28.394 44.333h-.01c-1.919-.003-3.477 1.562-3.48 3.495-.003 1.933 1.55 3.502 3.47 3.505h.01c1.919.003 3.476-1.561 3.48-3.494.002-1.933-1.551-3.503-3.47-3.506zm.81 4.328a1.154 1.154 0 01-1.972-.834c.001-.308.124-.603.341-.82.216-.217.507-.339.81-.34.64.003 1.156.528 1.153 1.172a1.172 1.172 0 01-.342.822h.01z" fill="#2196F3"/></svg>
